svg/editor/blockquote_line.svg

<?xml version="1.0" encoding="UTF-8"?>
<svg width="24px" height="24px" viewBox="0 0 24 24" version="1.1" xmlns="http://www.w3.org/2000/svg" xmlns:xlink="http://www.w3.org/1999/xlink">
    <title>blockquote_line</title>
    <g id="Icon" stroke="none" stroke-width="1" fill="none" fill-rule="evenodd">
        <g id="Editor" transform="translate(-432.000000, -288.000000)">
            <g id="blockquote_line" transform="translate(432.000000, 288.000000)">
                <path d="M24,0 L24,24 L0,24 L0,0 L24,0 Z M12.5935,23.2578 L12.5819,23.2595 L12.5109,23.295 L12.4919,23.2987 L12.4767,23.295 L12.4057,23.2595 C12.3958,23.2564 12.387,23.259 12.3821,23.2649 L12.378,23.2758 L12.3609,23.7031 L12.3659,23.7235 L12.3769,23.7357 L12.4805,23.8097 L12.4953,23.8136 L12.5071,23.8097 L12.6107,23.7357 L12.6233,23.7197 L12.6267,23.7031 L12.6096,23.2758 C12.6076,23.2657 12.601,23.2593 12.5935,23.2578 Z M12.8584,23.1453 L12.8445,23.1473 L12.6598,23.2397 L12.6499,23.2499 L12.6472,23.2611 L12.6651,23.6906 L12.6699,23.7034 L12.6784,23.7105 L12.8793,23.8032 C12.8914,23.8069 12.9022,23.803 12.9078,23.7952 L12.9118,23.7812 L12.8777,23.1665 C12.8753,23.1546 12.8674,23.147 12.8584,23.1453 Z M12.143,23.1473 C12.1332,23.1424 12.1222,23.1453 12.1156,23.1526 L12.1099,23.1665 L12.0758,23.7812 C12.0751,23.7927 12.0828,23.8019 12.0926,23.8046 L12.1083,23.8032 L12.3092,23.7105 L12.3186,23.7024 L12.3225,23.6906 L12.3404,23.2611 L12.3372,23.2485 L12.3278,23.2397 L12.143,23.1473 Z" id="MingCute" fill-rule="nonzero"></path>
                <path d="M11.7778,4.37147 C12.1249,4.80101 12.0581,5.43065 11.6286,5.77779 C11.0693,6.2298 10.704,6.66418 10.4646,7.05428 C11.3451,7.26374 12,8.05541 12,9.00003 C12,10.1046 11.1046,11.0000023 10,11.0000023 C8.89543,11.0000023 8,10.1046 8,9.00003 C8,8.94815 8.00198,8.89673 8.00586,8.84584 C7.98149,8.35427 8.025,7.69673 8.29836,6.95445 C8.6241,6.06993 9.25427,5.12514 10.3714,4.22228 C10.801,3.87513 11.4306,3.94193 11.7778,4.37147 Z M15,5.00003 C14.4477,5.00003 14,5.44775 14,6.00003 C14,6.55232 14.4477,7.00003 15,7.00003 L20,7.00003 C20.5523,7.00003 21,6.55232 21,6.00003 C21,5.44775 20.5523,5.00003 20,5.00003 L15,5.00003 Z M15,9.00003 C14.4477,9.00003 14,9.44775 14,10 C14,10.5523 14.4477,11 15,11 L20,11 C20.5523,11 21,10.5523 21,10 C21,9.44775 20.5523,9.00003 20,9.00003 L15,9.00003 Z M4,14 C4,13.4477 4.44772,13 5,13 L20,13 C20.5523,13 21,13.4477 21,14 C21,14.5523 20.5523,15 20,15 L5,15 C4.44772,15 4,14.5523 4,14 Z M5,17 C4.44772,17 4,17.4477 4,18 C4,18.5523 4.44772,19 5,19 L20,19 C20.5523,19 21,18.5523 21,18 C21,17.4477 20.5523,17 20,17 L5,17 Z M3.00586,8.84584 C3.00198,8.89673 3,8.94815 3,9.00003 C3,10.1046 3.89543,11.0000023 5,11.0000023 C6.10457,11.0000023 7.00003274,10.1046 7.00003274,9.00003 C7.00003274,8.05541 6.34512,7.26374 5.4646,7.05428 C5.70404,6.66418 6.06927,6.2298 6.62856,5.77779 C7.05811,5.43065 7.1249,4.80101 6.77776,4.37147 C6.43061,3.94193 5.80098,3.87513 5.37144,4.22228 C4.25427,5.12514 3.62411,6.06993 3.29836,6.95445 C3.025,7.69673 2.98149,8.35427 3.00586,8.84584 Z" id="形状" fill="#09244B"></path>
            </g>
        </g>
    </g>
</svg>

<svg xmlns="http://www.w3.org/2000/svg" width="24" height="24"><g fill="none" fill-rule="evenodd"><path d="M24 0v24H0V0h24ZM12.594 23.258l-.012.002-.071.035-.02.004-.014-.004-.071-.036c-.01-.003-.019 0-.024.006l-.004.01-.017.428.005.02.01.013.104.074.015.004.012-.004.104-.074.012-.016.004-.017-.017-.427c-.002-.01-.009-.017-.016-.018Zm.264-.113-.014.002-.184.093-.01.01-.003.011.018.43.005.012.008.008.201.092c.012.004.023 0 .029-.008l.004-.014-.034-.614c-.003-.012-.01-.02-.02-.022Zm-.715.002a.023.023 0 0 0-.027.006l-.006.014-.034.614c0 .012.007.02.017.024l.015-.002.201-.093.01-.008.003-.011.018-.43-.003-.012-.01-.01-.184-.092Z"/><path fill="#09244B" d="M11.778 4.371a1 1 0 0 1-.15 1.407c-.559.452-.924.886-1.163 1.276a2 2 0 1 1-2.46 1.792c-.024-.492.02-1.15.293-1.892.326-.884.956-1.829 2.073-2.732a1 1 0 0 1 1.407.15ZM15 5a1 1 0 1 0 0 2h5a1 1 0 1 0 0-2h-5Zm0 4a1 1 0 1 0 0 2h5a1 1 0 1 0 0-2h-5ZM4 14a1 1 0 0 1 1-1h15a1 1 0 1 1 0 2H5a1 1 0 0 1-1-1Zm1 3a1 1 0 1 0 0 2h15a1 1 0 1 0 0-2H5ZM3.006 8.846a2 2 0 1 0 2.459-1.792c.239-.39.604-.824 1.164-1.276A1 1 0 1 0 5.37 4.222c-1.117.903-1.747 1.848-2.073 2.732a4.757 4.757 0 0 0-.292 1.892Z"/></g></svg>
